src/apps/user_ldap/img/copy.svg

<?xml version="1.0" encoding="UTF-8"?>
<svg xmlns="http://www.w3.org/2000/svg" xmlns:xlink="http://www.w3.org/1999/xlink" width="16px" height="16px" viewBox="0 0 16 16" version="1.1">
<g id="surface1">
<path style="fill:none;stroke-width:8.125471;stroke-linecap:butt;stroke-linejoin:round;stroke:rgb(100%,100%,100%);stroke-opacity:1;stroke-miterlimit:4;" d="M 8.173828 4.6875 C 7.529297 4.6875 6.914062 4.936523 6.474609 5.390625 C 6.020508 5.844727 5.771484 6.445312 5.771484 7.089844 L 5.771484 37.763672 C 5.771484 38.408203 6.020508 39.008789 6.474609 39.462891 C 6.928711 39.916992 7.529297 40.166016 8.173828 40.166016 L 37.119141 40.166016 C 37.749023 40.166016 38.364258 39.916992 38.818359 39.462891 C 39.272461 39.008789 39.521484 38.408203 39.521484 37.763672 L 39.521484 7.089844 C 39.521484 6.445312 39.272461 5.844727 38.818359 5.390625 C 38.364258 4.936523 37.749023 4.6875 37.119141 4.6875 Z M 8.173828 4.6875 " transform="matrix(0.266667,0,0,0.266667,0,0)"/>
<path style="fill-rule:evenodd;fill:rgb(100%,100%,100%);fill-opacity:1;stroke-width:3.125405;stroke-linecap:butt;stroke-linejoin:round;stroke:rgb(0%,0%,0%);stroke-opacity:1;stroke-miterlimit:4;" d="M 8.173828 4.6875 C 7.529297 4.6875 6.914062 4.936523 6.474609 5.390625 C 6.020508 5.844727 5.771484 6.445312 5.771484 7.089844 L 5.771484 37.763672 C 5.771484 38.408203 6.020508 39.008789 6.474609 39.462891 C 6.928711 39.916992 7.529297 40.166016 8.173828 40.166016 L 37.119141 40.166016 C 37.749023 40.166016 38.364258 39.916992 38.818359 39.462891 C 39.272461 39.008789 39.521484 38.408203 39.521484 37.763672 L 39.521484 7.089844 C 39.521484 6.445312 39.272461 5.844727 38.818359 5.390625 C 38.364258 4.936523 37.749023 4.6875 37.119141 4.6875 Z M 8.173828 4.6875 " transform="matrix(0.266667,0,0,0.266667,0,0)"/>
<path style="fill:none;stroke-width:8.125471;stroke-linecap:butt;stroke-linejoin:round;stroke:rgb(100%,100%,100%);stroke-opacity:1;stroke-miterlimit:4;" d="M 22.880859 19.833984 C 22.250977 19.833984 21.635742 20.083008 21.181641 20.537109 C 20.727539 20.991211 20.478516 21.591797 20.478516 22.236328 L 20.478516 52.910156 C 20.478516 53.554688 20.727539 54.155273 21.181641 54.609375 C 21.635742 55.063477 22.250977 55.3125 22.880859 55.3125 L 51.826172 55.3125 C 52.470703 55.3125 53.085938 55.063477 53.525391 54.609375 C 53.979492 54.155273 54.228516 53.554688 54.228516 52.910156 L 54.228516 22.236328 C 54.228516 21.591797 53.979492 20.991211 53.525391 20.537109 C 53.085938 20.083008 52.470703 19.833984 51.826172 19.833984 Z M 22.880859 19.833984 " transform="matrix(0.266667,0,0,0.266667,0,0)"/>
<path style="fill-rule:evenodd;fill:rgb(100%,100%,100%);fill-opacity:1;stroke-width:3.125405;stroke-linecap:butt;stroke-linejoin:round;stroke:rgb(0%,0%,0%);stroke-opacity:1;stroke-miterlimit:4;" d="M 22.880859 19.833984 C 22.250977 19.833984 21.635742 20.083008 21.181641 20.537109 C 20.727539 20.991211 20.478516 21.591797 20.478516 22.236328 L 20.478516 52.910156 C 20.478516 53.554688 20.727539 54.155273 21.181641 54.609375 C 21.635742 55.063477 22.250977 55.3125 22.880859 55.3125 L 51.826172 55.3125 C 52.470703 55.3125 53.085938 55.063477 53.525391 54.609375 C 53.979492 54.155273 54.228516 53.554688 54.228516 52.910156 L 54.228516 22.236328 C 54.228516 21.591797 53.979492 20.991211 53.525391 20.537109 C 53.085938 20.083008 52.470703 19.833984 51.826172 19.833984 Z M 22.880859 19.833984 " transform="matrix(0.266667,0,0,0.266667,0,0)"/>
<path style="fill:none;stroke-width:8.125;stroke-linecap:round;stroke-linejoin:round;stroke:rgb(100%,100%,100%);stroke-opacity:1;stroke-miterlimit:4;" d="M 12.451172 21.606445 C 14.780273 42.128906 32.607422 40.751953 33.75 40.634766 L 33.75 46.787109 L 42.729492 37.895508 L 33.75 29.018555 L 33.75 35.083008 C 32.402344 35.244141 19.819336 36.503906 12.451172 21.591797 Z M 12.451172 21.606445 " transform="matrix(0.266667,0,0,0.266667,0,0)"/>
<path style="fill-rule:evenodd;fill:rgb(0%,0%,0%);fill-opacity:1;stroke-width:3.125;stroke-linecap:round;stroke-linejoin:round;stroke:rgb(0%,0%,0%);stroke-opacity:1;stroke-miterlimit:4;" d="M 12.451172 21.606445 C 14.780273 42.128906 32.607422 40.751953 33.75 40.634766 L 33.75 46.787109 L 42.729492 37.895508 L 33.75 29.018555 L 33.75 35.083008 C 32.402344 35.244141 19.819336 36.503906 12.451172 21.591797 Z M 12.451172 21.606445 " transform="matrix(0.266667,0,0,0.266667,0,0)"/>
</g>
</svg>

<svg xmlns="http://www.w3.org/2000/svg" viewBox="0 0 60 60" version="1"><path d="M8.172 4.685A2.4 2.4 0 0 0 5.767 7.09v30.675a2.4 2.4 0 0 0 2.405 2.404h28.944a2.4 2.4 0 0 0 2.404-2.405V7.09a2.4 2.4 0 0 0-2.404-2.405H8.172z" stroke-linejoin="round" stroke="#fff" stroke-width="8.12547063" fill="none"/><path d="M8.172 4.685A2.4 2.4 0 0 0 5.767 7.09v30.675a2.4 2.4 0 0 0 2.405 2.404h28.944a2.4 2.4 0 0 0 2.404-2.405V7.09a2.4 2.4 0 0 0-2.404-2.405H8.172z" stroke-linejoin="round" fill-rule="evenodd" stroke="#000" stroke-width="3.1254052800000003" fill="#fff"/><path d="M22.884 19.83a2.4 2.4 0 0 0-2.404 2.406V52.91a2.4 2.4 0 0 0 2.404 2.405h28.944a2.4 2.4 0 0 0 2.406-2.404V22.237a2.4 2.4 0 0 0-2.406-2.406H22.884z" stroke-linejoin="round" stroke="#fff" stroke-width="8.12547063" fill="none"/><path d="M22.884 19.83a2.4 2.4 0 0 0-2.404 2.406V52.91a2.4 2.4 0 0 0 2.404 2.405h28.944a2.4 2.4 0 0 0 2.406-2.404V22.237a2.4 2.4 0 0 0-2.406-2.406H22.884z" stroke-linejoin="round" fill-rule="evenodd" stroke="#000" stroke-width="3.1254052800000003" fill="#fff"/><path d="M12.457 21.6c2.325 20.528 20.15 19.15 21.296 19.042v6.14l8.98-8.89-8.98-8.87v6.066c-1.348.16-13.94 1.422-21.296-13.49z" stroke-linejoin="round" stroke="#fff" stroke-linecap="round" stroke-width="8.125" fill="none"/><path d="M12.457 21.6c2.325 20.528 20.15 19.15 21.296 19.042v6.14l8.98-8.89-8.98-8.87v6.066c-1.348.16-13.94 1.422-21.296-13.49z" stroke-linejoin="round" fill-rule="evenodd" stroke="#000" stroke-linecap="round" stroke-width="3.125"/></svg>
